packages/asc-assets/svg/TrashBin.svg

<svg viewBox="0 0 36 36"><path d="M31 6h-8V2H13v4H5v4h2v24h22V10h2zM15 4h6v2h-6zm10 26H11V10h14z"></path><path d="M13.02 14H15v12h-1.98zM17 14h2v12h-2zM21.02 14H23v12h-1.98z"></path></svg>

<svg xmlns="http://www.w3.org/2000/svg" width="36" height="36" viewBox="0 0 36 36"><title>icon-export_ams-ds_v0.2</title><path d="M31,6H23V2H13V6H5v4H7V34H29V10h2ZM15,4h6V6H15ZM25,30H11V10H25Z"/><rect x="13.02" y="14" width="1.98" height="12"/><rect x="17" y="14" width="2" height="12"/><rect x="21.02" y="14" width="1.98" height="12"/></svg>
